communes/2773.svg

<?xml version="1.0" encoding="UTF-8"?>
<svg version="1.1" viewBox="0 0 540 620" xmlns="http://www.w3.org/2000/svg" xmlns:cc="http://creativecommons.org/ns#" xmlns:dc="http://purl.org/dc/elements/1.1/" xmlns:rdf="http://www.w3.org/1999/02/22-rdf-syntax-ns#" xmlns:xlink="http://www.w3.org/1999/xlink">
<metadata>
<rdf:RDF>
<cc:Work rdf:about="">
<dc:format>image/svg+xml</dc:format>
<dc:type rdf:resource="http://purl.org/dc/dcmitype/StillImage"/>
</cc:Work>
</rdf:RDF>
</metadata>
<title>Wappen von Reinach</title>
<desc>Wappen der Schweizer Gemeinde Reinach, Kanton Baselland</desc>
<defs>
<clipPath id="b">
<path d="m9 9h522v341a261 261 0 0 1-522 0z"/>
</clipPath>
</defs>
<g stroke="#000" stroke-width="9">
<path d="m4.5 4.5h265.5v611a265.5 265.5 0 0 1-265.5-265.5z" fill="#fff"/>
<path d="m270 4.5h265.5v345.5a265.5 265.5 0 0 1-265.5 265.5z" fill="#0056ad"/>
</g>
<g stroke="#000" stroke-width="4">
<circle id="a" cx="402" cy="112" r="70" fill="#ffd400"/>
<use y="162" xlink:href="#a"/>
<use y="324" xlink:href="#a"/>
<path d="m118 248v352h40v-352h32v-34h-104v34h72m0-34c0-28 53-45 53-97a73 74 0 0 0-73-74 71 62 0 0 0-71 62 47 52 0 0 0 47 52 35 30 0 0 0 35-30 24 23 0 0 0-24-23c-6 0-9 2-12 7-1 2-3 7-6 7a7 16 0 0 1-7-16 37 28 0 0 1 37-28 38 43 0 0 1 38 43c0 38-57 60-57 97" clip-path="url(#b)" fill="#e2001a"/>
</g>
</svg>

<?xml version="1.0" encoding="UTF-8" standalone="no"?>
<svg
   xmlns:dc="http://purl.org/dc/elements/1.1/"
   xmlns:cc="http://creativecommons.org/ns#"
   xmlns:rdf="http://www.w3.org/1999/02/22-rdf-syntax-ns#"
   xmlns:svg="http://www.w3.org/2000/svg"
   xmlns="http://www.w3.org/2000/svg"
   xmlns:xlink="http://www.w3.org/1999/xlink"
   xmlns:sodipodi="http://sodipodi.sourceforge.net/DTD/sodipodi-0.dtd"
   xmlns:inkscape="http://www.inkscape.org/namespaces/inkscape"
   version="1.1"
   width="540"
   height="620"
   viewBox="0,0 540,620"
   id="svg26"
   sodipodi:docname="2773.svg">
  <metadata
     id="metadata30">
    <rdf:RDF>
      <cc:Work
         rdf:about="">
        <dc:format>image/svg+xml</dc:format>
        <dc:type
           rdf:resource="http://purl.org/dc/dcmitype/StillImage" />
      </cc:Work>
    </rdf:RDF>
  </metadata>
  <sodipodi:namedview
     pagecolor="#ffffff"
     bordercolor="#666666"
     borderopacity="1"
     objecttolerance="10"
     gridtolerance="10"
     guidetolerance="10"
     inkscape:pageopacity="0"
     inkscape:pageshadow="2"
     inkscape:window-width="640"
     inkscape:window-height="480"
     id="namedview28" />
  <title
     id="title2">Wappen von Reinach</title>
  <desc
     id="desc4">Wappen der Schweizer Gemeinde Reinach, Kanton Baselland</desc>
  <defs
     id="defs9">
    <clipPath
       id="cpSchild">
      <path
         d="M 9,9 H 531 V 350 A 261,261 0 0,1 9,350 z"
         id="path6" />
    </clipPath>
  </defs>
  <g
     stroke="black"
     stroke-width="9"
     id="g15">
    <path
       d="M 4.5,4.5 H 270 v 611 A 265.5,265.5 0 0,1 4.5,350 z"
       fill="white"
       id="path11" />
    <path
       d="M 270,4.5 H 535.5 V 350 A 265.5,265.5 0 0,1 270,615.5 z"
       fill="#0056ad"
       id="path13" />
  </g>
  <g
     stroke="black"
     stroke-width="4"
     id="g24">
    <circle
       id="kreis"
       cx="402"
       cy="112"
       r="70"
       fill="#ffd400" />
    <use
       y="162"
       xlink:href="#kreis"
       id="use18" />
    <use
       y="324"
       xlink:href="#kreis"
       id="use20" />
    <path
       d="M 118,248 V 600 h 40 V 248 h 32 V 214 H 86 v 34 h 72 m 0,-34 c 0,-28 53,-45 53,-97 A 73,74 0 0,0 138,43 71,62 0 0,0 67,105 47,52 0 0,0 114,157 35,30 0 0,0 149,127 24,23 0 0,0 125,104 c -6,0 -9,2 -12,7 -1,2 -3,7 -6,7 a 7,16 0 0,1 -7,-16 37,28 0 0,1 37,-28 38,43 0 0,1 38,43 c 0,38 -57,60 -57,97"
       fill="#e2001a"
       clip-path="url(#cpSchild)"
       id="path22" />
  </g>
</svg>
